svg/furkot/freepik/over-half-tank.svg

<svg viewBox="0 0 512 512" xmlns="http://www.w3.org/2000/svg"><path d="m251.6 396.148h21.117l-10.628-23.875z"/><path d="m255.999 0c-141.16 0-255.999 114.839-255.999 255.999 0 141.161 114.839 256.001 255.999 256.001 141.161 0 256.001-114.839 256.001-256.001 0-141.161-114.839-255.999-256.001-255.999zm53.069 255.999c1.226 8.17.711 16.598-1.662 24.736-7.139 24.507-29.944 41.621-55.451 41.621h-.003c-5.468 0-10.916-.78-16.187-2.321-28.059-8.18-45.197-35.897-40.962-64.036h-136.191c0-108.841 88.546-197.387 197.387-197.387 108.842 0 197.389 88.546 197.389 197.387z"/><path d="m243.959 259.217c-5.55 19.055 5.389 39.003 24.441 44.562 19.054 5.549 39.001-5.388 44.561-24.442 3.072-10.543 1.091-21.35-4.52-29.852l20.191-172.233-64.824 159.217c-9.295 4.163-16.773 12.212-19.849 22.748z" transform="matrix(.906308 .422618 -.422618 .906308 116.134599 -99.453188)"/></svg>

<svg viewBox="0 0 512 512" xmlns="http://www.w3.org/2000/svg"><path d="M251.6 396.148L272.717 396.148 262.089 372.273Z"/><path d="M 255.999 0 C 114.839 0 0 114.839 0 255.999 C 0 397.16 114.839 512 255.999 512 C 397.16 512 512 397.161 512 255.999 C 512 114.838 397.161 0 255.999 0 Z M 309.068 255.999 C 310.294 264.169 309.779 272.597 307.406 280.735 C 300.267 305.242 277.462 322.356 251.955 322.356 L 251.952 322.356 C 246.484 322.356 241.036 321.576 235.765 320.035 C 207.706 311.855 190.568 284.138 194.803 255.999 L 58.612 255.999 C 58.612 147.158 147.158 58.612 255.999 58.612 C 364.841 58.612 453.388 147.158 453.388 255.999 L 309.068 255.999 Z"/><path d="M 243.959 259.217 C 238.409 278.272 249.348 298.22 268.4 303.779 C 287.454 309.328 307.401 298.391 312.961 279.337 C 316.033 268.794 314.052 257.987 308.441 249.485 L 328.632 77.252 L 263.808 236.469 C 254.513 240.632 247.035 248.681 243.959 259.217 Z" transform="matrix(0.906308, 0.422618, -0.422618, 0.906308, 116.134599, -99.453188)"/></svg>
